Newaita-dark/.places-blue/24/folder-music.svg

<svg xmlns="http://www.w3.org/2000/svg" xmlns:xlink="http://www.w3.org/1999/xlink" width="24px" height="24px" viewBox="0 0 24 24" version="1.1">
<defs>
<linearGradient id="linear0" gradientUnits="userSpaceOnUse" x1="254" y1="233.5" x2="254" y2="254.667007" gradientTransform="matrix(0.0468787,0,0,0.0468787,0,10.07925)">
<stop offset="0" style="stop-color:rgb(0%,0%,0%);stop-opacity:0.275;"/>
<stop offset="1" style="stop-color:rgb(0%,0%,0%);stop-opacity:0;"/>
</linearGradient>
<radialGradient id="radial0" gradientUnits="userSpaceOnUse" cx="450.908997" cy="189.578995" fx="450.908997" fy="189.578995" r="21.167" gradientTransform="matrix(0,-0.0585975,-0.10548,0,40.586251,47.696251)">
<stop offset="0" style="stop-color:rgb(0%,0%,0%);stop-opacity:0.314;"/>
<stop offset="0.222" style="stop-color:rgb(0%,0%,0%);stop-opacity:0.275;"/>
<stop offset="1" style="stop-color:rgb(0%,0%,0%);stop-opacity:0;"/>
</radialGradient>
<radialGradient id="radial1" gradientUnits="userSpaceOnUse" cx="450.908997" cy="189.578995" fx="450.908997" fy="189.578995" r="21.167" gradientTransform="matrix(0,0.0585975,0.10548,0,-16.7715,-5.645625)">
<stop offset="0" style="stop-color:rgb(0%,0%,0%);stop-opacity:0.314;"/>
<stop offset="0.222" style="stop-color:rgb(0%,0%,0%);stop-opacity:0.275;"/>
<stop offset="1" style="stop-color:rgb(0%,0%,0%);stop-opacity:0;"/>
</radialGradient>
<radialGradient id="radial2" gradientUnits="userSpaceOnUse" cx="450.908997" cy="189.578995" fx="450.908997" fy="189.578995" r="21.167" gradientTransform="matrix(0,-0.0585975,0.10548,0,-16.7715,47.696251)">
<stop offset="0" style="stop-color:rgb(0%,0%,0%);stop-opacity:0.314;"/>
<stop offset="0.222" style="stop-color:rgb(0%,0%,0%);stop-opacity:0.275;"/>
<stop offset="1" style="stop-color:rgb(0%,0%,0%);stop-opacity:0;"/>
</radialGradient>
<radialGradient id="radial3" gradientUnits="userSpaceOnUse" cx="450.908997" cy="189.578995" fx="450.908997" fy="189.578995" r="21.167" gradientTransform="matrix(0,0.0585975,-0.10548,0,40.586251,-5.645625)">
<stop offset="0" style="stop-color:rgb(0%,0%,0%);stop-opacity:0.314;"/>
<stop offset="0.222" style="stop-color:rgb(0%,0%,0%);stop-opacity:0.275;"/>
<stop offset="1" style="stop-color:rgb(0%,0%,0%);stop-opacity:0;"/>
</radialGradient>
<linearGradient id="linear1" gradientUnits="userSpaceOnUse" x1="254" y1="-147.5" x2="254" y2="-31.083" gradientTransform="matrix(0.0468787,0,0,0.0468787,0,10.07925)">
<stop offset="0" style="stop-color:rgb(64.313728%,64.313728%,64.313728%);stop-opacity:0;"/>
<stop offset="1" style="stop-color:rgb(100%,100%,100%);stop-opacity:0.196;"/>
</linearGradient>
<linearGradient id="linear2" gradientUnits="userSpaceOnUse" x1="254" y1="233.5" x2="254" y2="-105.167" gradientTransform="matrix(0.0468787,0,0,0.0468787,0,10.07925)">
<stop offset="0" style="stop-color:rgb(34.509805%,34.509805%,34.509805%);stop-opacity:0;"/>
<stop offset="1" style="stop-color:rgb(98.039216%,98.039216%,98.039216%);stop-opacity:0.196;"/>
</linearGradient>
<linearGradient id="linear3" gradientUnits="userSpaceOnUse" x1="254" y1="-147.5" x2="254" y2="233.5" gradientTransform="matrix(0.0468787,0,0,0.0468787,0,10.07925)">
<stop offset="0" style="stop-color:rgb(64.313728%,64.313728%,64.313728%);stop-opacity:0;"/>
<stop offset="1" style="stop-color:rgb(100%,100%,100%);stop-opacity:0.196;"/>
</linearGradient>
</defs>
<g id="surface1">
<path style=" stroke:none;fill-rule:nonzero;fill:url(#linear0);" d="M 2.976562 21.023438 L 20.835938 21.023438 L 20.835938 22.019531 L 2.976562 22.019531 Z M 2.976562 21.023438 "/>
<path style=" stroke:none;fill-rule:nonzero;fill:url(#radial0);" d="M 20.835938 21.023438 L 22.820312 21.023438 L 22.820312 20.035156 L 20.835938 20.035156 Z M 20.835938 21.023438 "/>
<path style=" stroke:none;fill-rule:nonzero;fill:url(#radial1);" d="M 2.976562 21.023438 L 0.992188 21.023438 L 0.992188 22.019531 L 2.976562 22.019531 Z M 2.976562 21.023438 "/>
<path style=" stroke:none;fill-rule:nonzero;fill:url(#radial2);" d="M 2.976562 21.023438 L 0.992188 21.023438 L 0.992188 20.035156 L 2.976562 20.035156 Z M 2.976562 21.023438 "/>
<path style=" stroke:none;fill-rule:nonzero;fill:url(#radial3);" d="M 20.835938 21.023438 L 22.820312 21.023438 L 22.820312 22.019531 L 20.835938 22.019531 Z M 20.835938 21.023438 "/>
<path style=" stroke:none;fill-rule:nonzero;fill:rgb(11.764706%,53.333336%,89.803922%);fill-opacity:1;" d="M 5.457031 3.164062 L 21.582031 3.164062 C 21.84375 3.164062 22.097656 3.269531 22.285156 3.453125 C 22.46875 3.640625 22.574219 3.894531 22.574219 4.15625 L 22.574219 7.878906 C 22.574219 8.425781 22.128906 8.871094 21.582031 8.871094 L 5.457031 8.871094 C 4.910156 8.871094 4.464844 8.425781 4.464844 7.878906 L 4.464844 4.15625 C 4.464844 3.609375 4.910156 3.164062 5.457031 3.164062 Z M 5.457031 3.164062 "/>
<path style=" stroke:none;fill-rule:nonzero;fill:url(#linear1);" d="M 5.457031 3.164062 L 21.582031 3.164062 C 21.84375 3.164062 22.097656 3.269531 22.285156 3.453125 C 22.46875 3.640625 22.574219 3.894531 22.574219 4.15625 L 22.574219 7.878906 C 22.574219 8.425781 22.128906 8.871094 21.582031 8.871094 L 5.457031 8.871094 C 4.910156 8.871094 4.464844 8.425781 4.464844 7.878906 L 4.464844 4.15625 C 4.464844 3.609375 4.910156 3.164062 5.457031 3.164062 Z M 5.457031 3.164062 "/>
<path style=" stroke:none;fill-rule:nonzero;fill:rgb(90.196079%,90.196079%,90.196079%);fill-opacity:0.588;" d="M 5.457031 3.164062 C 5.195312 3.164062 4.941406 3.269531 4.753906 3.453125 C 4.570312 3.640625 4.464844 3.894531 4.464844 4.15625 L 4.464844 4.28125 C 4.464844 4.015625 4.570312 3.765625 4.753906 3.578125 C 4.941406 3.390625 5.195312 3.289062 5.457031 3.289062 L 21.582031 3.289062 C 21.84375 3.289062 22.097656 3.390625 22.285156 3.578125 C 22.46875 3.765625 22.574219 4.015625 22.574219 4.28125 L 22.574219 4.15625 C 22.574219 3.894531 22.472656 3.640625 22.285156 3.453125 C 22.097656 3.265625 21.84375 3.164062 21.582031 3.164062 Z M 5.457031 3.164062 "/>
<path style=" stroke:none;fill-rule:nonzero;fill:rgb(12.941177%,12.941177%,12.941177%);fill-opacity:1;" d="M 5.457031 3.09375 C 4.871094 3.09375 4.394531 3.570312 4.394531 4.15625 L 4.394531 7.878906 C 4.394531 8.160156 4.507812 8.429688 4.707031 8.628906 C 4.90625 8.828125 5.175781 8.941406 5.457031 8.941406 L 21.582031 8.941406 C 21.863281 8.941406 22.132812 8.828125 22.332031 8.628906 C 22.53125 8.429688 22.644531 8.160156 22.644531 7.878906 L 22.644531 4.15625 C 22.644531 3.570312 22.167969 3.09375 21.582031 3.09375 Z M 5.457031 3.234375 L 21.582031 3.234375 C 21.828125 3.234375 22.0625 3.332031 22.234375 3.503906 C 22.40625 3.675781 22.503906 3.910156 22.503906 4.15625 L 22.503906 7.878906 C 22.503906 8.121094 22.40625 8.359375 22.234375 8.53125 C 22.0625 8.703125 21.824219 8.800781 21.582031 8.800781 L 5.457031 8.800781 C 5.214844 8.800781 4.976562 8.703125 4.804688 8.53125 C 4.632812 8.359375 4.535156 8.121094 4.535156 7.878906 L 4.535156 4.15625 C 4.535156 3.914062 4.632812 3.675781 4.804688 3.503906 C 4.976562 3.332031 5.210938 3.234375 5.457031 3.234375 Z M 5.457031 3.234375 "/>
<path style=" stroke:none;fill-rule:nonzero;fill:rgb(25.882354%,64.705884%,96.078432%);fill-opacity:1;" d="M 1.984375 5.148438 C 1.722656 5.148438 1.46875 5.253906 1.28125 5.4375 C 1.097656 5.625 0.992188 5.878906 0.992188 6.140625 L 0.992188 20.035156 C 0.992188 20.296875 1.097656 20.550781 1.28125 20.734375 C 1.46875 20.921875 1.722656 21.023438 1.984375 21.023438 L 21.832031 21.023438 C 22.09375 21.023438 22.347656 20.921875 22.53125 20.734375 C 22.71875 20.550781 22.824219 20.296875 22.820312 20.035156 L 22.820312 7.628906 L 9.425781 7.628906 C 9.164062 7.628906 8.910156 7.523438 8.722656 7.339844 C 8.539062 7.152344 8.433594 6.898438 8.433594 6.636719 L 8.433594 5.148438 Z M 1.984375 5.148438 "/>
<path style=" stroke:none;fill-rule:nonzero;fill:url(#linear2);" d="M 1.984375 5.148438 C 1.722656 5.148438 1.46875 5.253906 1.28125 5.4375 C 1.097656 5.625 0.992188 5.878906 0.992188 6.140625 L 0.992188 20.035156 C 0.992188 20.296875 1.097656 20.550781 1.28125 20.734375 C 1.46875 20.921875 1.722656 21.023438 1.984375 21.023438 L 21.832031 21.023438 C 22.09375 21.023438 22.347656 20.921875 22.53125 20.734375 C 22.71875 20.550781 22.824219 20.296875 22.820312 20.035156 L 22.820312 7.628906 L 9.425781 7.628906 C 9.164062 7.628906 8.910156 7.523438 8.722656 7.339844 C 8.539062 7.152344 8.433594 6.898438 8.433594 6.636719 L 8.433594 5.148438 Z M 1.984375 5.148438 "/>
<path style=" stroke:none;fill-rule:nonzero;fill:rgb(0%,0%,0%);fill-opacity:0.196;" d="M 1.984375 21.023438 C 1.722656 21.023438 1.46875 20.921875 1.28125 20.734375 C 1.097656 20.550781 0.992188 20.296875 0.992188 20.035156 L 0.992188 19.910156 C 0.992188 20.171875 1.097656 20.425781 1.28125 20.613281 C 1.46875 20.796875 1.722656 20.902344 1.984375 20.902344 L 21.832031 20.902344 C 22.09375 20.902344 22.347656 20.796875 22.53125 20.609375 C 22.71875 20.425781 22.824219 20.171875 22.820312 19.910156 L 22.820312 20.035156 C 22.824219 20.296875 22.71875 20.550781 22.53125 20.734375 C 22.347656 20.921875 22.09375 21.023438 21.832031 21.023438 Z M 1.984375 21.023438 "/>
<path style=" stroke:none;fill-rule:nonzero;fill:rgb(90.196079%,90.196079%,90.196079%);fill-opacity:0.937;" d="M 1.984375 5.148438 C 1.722656 5.148438 1.46875 5.253906 1.28125 5.4375 C 1.097656 5.625 0.992188 5.878906 0.992188 6.140625 L 0.992188 6.265625 C 0.992188 6 1.097656 5.75 1.28125 5.5625 C 1.46875 5.375 1.722656 5.273438 1.984375 5.273438 L 8.433594 5.273438 L 8.433594 5.148438 Z M 9.363281 7.691406 C 9.101562 7.691406 8.847656 7.589844 8.664062 7.402344 C 8.476562 7.214844 8.371094 6.960938 8.371094 6.699219 L 8.371094 6.574219 C 8.371094 6.839844 8.476562 7.089844 8.664062 7.277344 C 8.847656 7.464844 9.101562 7.566406 9.363281 7.566406 L 22.820312 7.566406 L 22.820312 7.691406 Z M 9.363281 7.691406 "/>
<path style=" stroke:none;fill-rule:nonzero;fill:rgb(12.941177%,12.941177%,12.941177%);fill-opacity:1;" d="M 1.984375 5.078125 C 1.703125 5.078125 1.433594 5.191406 1.234375 5.390625 C 1.035156 5.589844 0.921875 5.859375 0.921875 6.140625 L 0.921875 20.035156 C 0.921875 20.316406 1.035156 20.585938 1.234375 20.785156 C 1.433594 20.984375 1.703125 21.09375 1.984375 21.09375 L 21.832031 21.09375 C 22.113281 21.09375 22.382812 20.984375 22.582031 20.785156 C 22.78125 20.585938 22.894531 20.316406 22.894531 20.035156 L 22.894531 7.488281 L 9.425781 7.488281 C 9.183594 7.488281 8.945312 7.394531 8.773438 7.21875 C 8.601562 7.046875 8.503906 6.8125 8.503906 6.566406 L 8.503906 5.078125 Z M 1.984375 5.21875 L 8.363281 5.21875 L 8.363281 6.566406 C 8.363281 6.847656 8.476562 7.117188 8.675781 7.316406 C 8.875 7.515625 9.144531 7.628906 9.425781 7.628906 L 22.753906 7.628906 L 22.753906 20.035156 C 22.753906 20.277344 22.65625 20.511719 22.484375 20.6875 C 22.308594 20.859375 22.074219 20.957031 21.832031 20.953125 L 1.984375 20.953125 C 1.738281 20.957031 1.503906 20.859375 1.332031 20.6875 C 1.160156 20.511719 1.0625 20.277344 1.0625 20.035156 L 1.0625 6.140625 C 1.0625 5.894531 1.160156 5.660156 1.332031 5.488281 C 1.503906 5.316406 1.738281 5.21875 1.984375 5.21875 Z M 1.984375 5.21875 "/>
<path style=" stroke:none;fill-rule:nonzero;fill:rgb(11.764706%,53.333336%,89.803922%);fill-opacity:1;" d="M 10.914062 9.632812 C 10.640625 9.632812 10.417969 9.890625 10.417969 10.207031 L 10.417969 15.160156 C 10.257812 15.109375 10.089844 15.085938 9.921875 15.085938 C 9.097656 15.085938 8.433594 15.640625 8.433594 16.328125 C 8.433594 17.015625 9.097656 17.570312 9.921875 17.570312 C 10.746094 17.570312 11.410156 17.015625 11.410156 16.328125 L 11.410156 10.871094 C 11.410156 10.734375 11.523438 10.621094 11.660156 10.621094 L 14.140625 10.621094 C 14.207031 10.621094 14.269531 10.648438 14.316406 10.695312 C 14.363281 10.742188 14.386719 10.804688 14.386719 10.871094 L 14.386719 13.667969 C 14.226562 13.625 14.058594 13.597656 13.894531 13.601562 C 13.066406 13.601562 12.402344 14.152344 12.402344 14.839844 C 12.402344 15.527344 13.066406 16.082031 13.894531 16.082031 C 14.71875 16.082031 15.382812 15.527344 15.382812 14.839844 L 15.382812 10.207031 C 15.382812 9.890625 15.160156 9.632812 14.882812 9.632812 Z M 10.914062 9.632812 "/>
<path style=" stroke:none;fill-rule:nonzero;fill:url(#linear3);" d="M 10.914062 9.632812 C 10.640625 9.632812 10.417969 9.890625 10.417969 10.207031 L 10.417969 15.160156 C 10.257812 15.109375 10.089844 15.085938 9.921875 15.085938 C 9.097656 15.085938 8.433594 15.640625 8.433594 16.328125 C 8.433594 17.015625 9.097656 17.570312 9.921875 17.570312 C 10.746094 17.570312 11.410156 17.015625 11.410156 16.328125 L 11.410156 10.871094 C 11.410156 10.734375 11.523438 10.621094 11.660156 10.621094 L 14.140625 10.621094 C 14.207031 10.621094 14.269531 10.648438 14.316406 10.695312 C 14.363281 10.742188 14.386719 10.804688 14.386719 10.871094 L 14.386719 13.667969 C 14.226562 13.625 14.058594 13.597656 13.894531 13.601562 C 13.066406 13.601562 12.402344 14.152344 12.402344 14.839844 C 12.402344 15.527344 13.066406 16.082031 13.894531 16.082031 C 14.71875 16.082031 15.382812 15.527344 15.382812 14.839844 L 15.382812 10.207031 C 15.382812 9.890625 15.160156 9.632812 14.882812 9.632812 Z M 10.914062 9.632812 "/>
<path style=" stroke:none;fill-rule:nonzero;fill:rgb(12.941177%,12.941177%,12.941177%);fill-opacity:1;" d="M 10.914062 9.5625 C 10.597656 9.5625 10.347656 9.855469 10.347656 10.207031 L 10.347656 15.070312 C 10.210938 15.035156 10.066406 15.019531 9.921875 15.015625 C 9.066406 15.015625 8.363281 15.597656 8.363281 16.328125 C 8.363281 17.0625 9.066406 17.640625 9.921875 17.640625 C 10.777344 17.640625 11.480469 17.0625 11.480469 16.328125 L 11.480469 10.871094 C 11.480469 10.769531 11.558594 10.691406 11.660156 10.691406 L 14.140625 10.691406 C 14.238281 10.691406 14.316406 10.769531 14.316406 10.871094 L 14.316406 13.582031 C 14.179688 13.546875 14.035156 13.53125 13.894531 13.527344 C 13.035156 13.527344 12.332031 14.109375 12.332031 14.839844 C 12.332031 15.570312 13.035156 16.152344 13.894531 16.152344 C 14.746094 16.152344 15.449219 15.570312 15.449219 14.839844 L 15.449219 10.207031 C 15.449219 9.855469 15.203125 9.5625 14.882812 9.5625 Z M 10.914062 9.703125 L 14.882812 9.703125 C 15.117188 9.703125 15.308594 9.921875 15.308594 10.207031 L 15.308594 14.839844 C 15.308594 15.480469 14.683594 16.011719 13.894531 16.011719 C 13.097656 16.011719 12.472656 15.480469 12.472656 14.839844 C 12.472656 14.199219 13.097656 13.667969 13.894531 13.667969 C 14.058594 13.667969 14.21875 13.695312 14.367188 13.738281 L 14.457031 13.761719 L 14.457031 10.871094 C 14.457031 10.695312 14.316406 10.554688 14.140625 10.554688 L 11.660156 10.554688 C 11.484375 10.554688 11.339844 10.695312 11.339844 10.871094 L 11.339844 16.328125 C 11.339844 16.96875 10.714844 17.5 9.921875 17.5 C 9.128906 17.5 8.503906 16.96875 8.503906 16.328125 C 8.503906 15.6875 9.128906 15.160156 9.921875 15.160156 C 10.089844 15.160156 10.25 15.183594 10.398438 15.226562 L 10.488281 15.253906 L 10.488281 10.207031 C 10.488281 9.921875 10.683594 9.703125 10.914062 9.703125 Z M 10.914062 9.703125 "/>
</g>
</svg>

<svg xmlns="http://www.w3.org/2000/svg" width="32" height="32" viewBox="0 0 24 24"><defs><linearGradient id="a" gradientUnits="userSpaceOnUse" x1="254" y1="233.5" x2="254" y2="254.667" gradientTransform="matrix(.04688 0 0 .04688 0 10.08)"><stop offset="0" stop-opacity=".275"/><stop offset="1" stop-opacity="0"/></linearGradient><radialGradient id="b" gradientUnits="userSpaceOnUse" cx="450.909" cy="189.579" fx="450.909" fy="189.579" r="21.167" gradientTransform="matrix(0 -.0586 -.10548 0 40.586 47.697)"><stop offset="0" stop-opacity=".314"/><stop offset=".222" stop-opacity=".275"/><stop offset="1" stop-opacity="0"/></radialGradient><radialGradient id="c" gradientUnits="userSpaceOnUse" cx="450.909" cy="189.579" fx="450.909" fy="189.579" r="21.167" gradientTransform="matrix(0 .0586 .10548 0 -16.772 -5.646)"><stop offset="0" stop-opacity=".314"/><stop offset=".222" stop-opacity=".275"/><stop offset="1" stop-opacity="0"/></radialGradient><radialGradient id="d" gradientUnits="userSpaceOnUse" cx="450.909" cy="189.579" fx="450.909" fy="189.579" r="21.167" gradientTransform="matrix(0 -.0586 .10548 0 -16.772 47.697)"><stop offset="0" stop-opacity=".314"/><stop offset=".222" stop-opacity=".275"/><stop offset="1" stop-opacity="0"/></radialGradient><radialGradient id="e" gradientUnits="userSpaceOnUse" cx="450.909" cy="189.579" fx="450.909" fy="189.579" r="21.167" gradientTransform="matrix(0 .0586 -.10548 0 40.586 -5.646)"><stop offset="0" stop-opacity=".314"/><stop offset=".222" stop-opacity=".275"/><stop offset="1" stop-opacity="0"/></radialGradient><linearGradient id="f" gradientUnits="userSpaceOnUse" x1="254" y1="-147.5" x2="254" y2="-31.083" gradientTransform="matrix(.04688 0 0 .04688 0 10.08)"><stop offset="0" stop-color="#a4a4a4" stop-opacity="0"/><stop offset="1" stop-color="#fff" stop-opacity=".196"/></linearGradient><linearGradient id="g" gradientUnits="userSpaceOnUse" x1="254" y1="233.5" x2="254" y2="-105.167" gradientTransform="matrix(.04688 0 0 .04688 0 10.08)"><stop offset="0" stop-color="#585858" stop-opacity="0"/><stop offset="1" stop-color="#fafafa" stop-opacity=".196"/></linearGradient><linearGradient id="h" gradientUnits="userSpaceOnUse" x1="254" y1="-147.5" x2="254" y2="233.5" gradientTransform="matrix(.04688 0 0 .04688 0 10.08)"><stop offset="0" stop-color="#a4a4a4" stop-opacity="0"/><stop offset="1" stop-color="#fff" stop-opacity=".196"/></linearGradient></defs><path d="M2.977 21.027H20.84v.993H2.977zm0 0" fill="url(#a)"/><path d="M20.84 21.027h1.984v-.996H20.84zm0 0" fill="url(#b)"/><path d="M2.977 21.027H.992v.993h1.985zm0 0" fill="url(#c)"/><path d="M2.977 21.027H.992v-.996h1.985zm0 0" fill="url(#d)"/><path d="M20.84 21.027h1.984v.993H20.84zm0 0" fill="url(#e)"/><path d="M5.457 3.164h16.125c.547 0 .992.445.992.992V7.88a.994.994 0 0 1-.992.992H5.457a.994.994 0 0 1-.992-.992V4.156c0-.547.445-.992.992-.992zm0 0" fill="#1e88e5"/><path d="M5.457 3.164h16.125c.547 0 .992.445.992.992V7.88a.994.994 0 0 1-.992.992H5.457a.994.994 0 0 1-.992-.992V4.156c0-.547.445-.992.992-.992zm0 0" fill="url(#f)"/><path d="M5.457 3.164a.989.989 0 0 0-.992.992v.125c0-.55.441-.992.992-.992h16.125c.55 0 .992.441.992.992v-.125a.989.989 0 0 0-.992-.992zm0 0" fill="#e6e6e6" fill-opacity=".588"/><path d="M5.457 3.094c-.586 0-1.062.476-1.062 1.062V7.88c0 .586.476 1.062 1.062 1.062h16.125c.586 0 1.063-.476 1.063-1.062V4.156c0-.586-.477-1.062-1.063-1.062zm0 .14h16.125c.512 0 .922.41.922.922V7.88c0 .512-.41.922-.922.922H5.457a.919.919 0 0 1-.922-.922V4.156c0-.511.41-.922.922-.922zm0 0" fill="#212121"/><path d="M1.984 5.148a.989.989 0 0 0-.992.993v13.89c0 .551.442.996.992.996h19.848a.994.994 0 0 0 .992-.996V7.63H9.426a.991.991 0 0 1-.992-.992V5.148zm0 0" fill="#42a5f5"/><path d="M1.984 5.148a.989.989 0 0 0-.992.993v13.89c0 .551.442.996.992.996h19.848a.994.994 0 0 0 .992-.996V7.63H9.426a.991.991 0 0 1-.992-.992V5.148zm0 0" fill="url(#g)"/><path d="M1.984 21.027a.992.992 0 0 1-.992-.996v-.12c0 .546.442.991.992.991h19.848a.994.994 0 0 0 .992-.992v.121c0 .551-.445.996-.992.996zm0 0" fill-opacity=".196"/><path d="M1.984 5.148a.989.989 0 0 0-.992.993v.125c0-.551.442-.993.992-.993h6.45v-.125zm0 0M9.363 7.691a.991.991 0 0 1-.992-.992v-.125c0 .551.445.996.992.992h13.461v.125zm0 0" fill="#e6e6e6" fill-opacity=".937"/><path d="M1.984 5.078c-.586 0-1.062.477-1.062 1.063v13.89c0 .59.476 1.067 1.062 1.067h19.848c.586 0 1.063-.477 1.063-1.067V7.488H9.425a.919.919 0 0 1-.921-.922V5.078zm0 .14h6.38v1.348c0 .59.476 1.063 1.062 1.063h13.328V20.03a.92.92 0 0 1-.922.926H1.984a.92.92 0 0 1-.921-.926V6.141c0-.512.41-.922.921-.922zm0 0" fill="#212121"/><path d="M10.914 9.633c-.273 0-.496.258-.496.574v4.953a1.692 1.692 0 0 0-.496-.07c-.824 0-1.488.55-1.488 1.238s.664 1.242 1.488 1.242 1.488-.554 1.488-1.242v-5.457c0-.137.113-.246.25-.246h2.48c.137 0 .247.11.247.246v2.8a1.692 1.692 0 0 0-.496-.07c-.825 0-1.489.551-1.489 1.239 0 .687.664 1.242 1.489 1.242.824 0 1.488-.555 1.488-1.242v-4.633c0-.316-.219-.574-.496-.574zm0 0" fill="#1e88e5"/><path d="M10.914 9.633c-.273 0-.496.258-.496.574v4.953a1.692 1.692 0 0 0-.496-.07c-.824 0-1.488.55-1.488 1.238s.664 1.242 1.488 1.242 1.488-.554 1.488-1.242v-5.457c0-.137.113-.246.25-.246h2.48c.137 0 .247.11.247.246v2.8a1.692 1.692 0 0 0-.496-.07c-.825 0-1.489.551-1.489 1.239 0 .687.664 1.242 1.489 1.242.824 0 1.488-.555 1.488-1.242v-4.633c0-.316-.219-.574-.496-.574zm0 0" fill="url(#h)"/><path d="M10.914 9.563c-.316 0-.566.292-.566.644v4.863a1.896 1.896 0 0 0-.426-.05c-.856 0-1.559.578-1.559 1.308 0 .735.703 1.313 1.559 1.313.855 0 1.558-.578 1.558-1.313v-5.457c0-.098.079-.176.18-.176h2.48c.098 0 .176.078.176.176v2.711a1.87 1.87 0 0 0-.425-.05c-.856 0-1.559.577-1.559 1.308 0 .734.703 1.312 1.559 1.312.855 0 1.558-.578 1.558-1.312v-4.633c0-.352-.246-.645-.566-.645zm0 .14h3.969c.23 0 .426.219.426.504v4.633c0 .64-.625 1.172-1.418 1.172-.793 0-1.418-.532-1.418-1.172 0-.64.625-1.168 1.418-1.168.168 0 .328.023.476.066l.09.028V10.87a.315.315 0 0 0-.316-.316h-2.48c-.177 0-.321.14-.321.316v5.457c0 .645-.625 1.172-1.418 1.172-.793 0-1.418-.527-1.418-1.172 0-.64.625-1.168 1.418-1.168.168 0 .328.024.476.067l.09.027v-5.047c0-.285.196-.504.426-.504zm0 0" fill="#212121"/></svg>
